X:1
T:Piano Sonata No. 16 in C K545 (1st mvt theme)
C:Wolfgang Amadeus Mozart
K:C
M:4/4
L:1/8
Q:1/4=120
|: C D E F G A G E | F D E C D4 |
E F G A B c B G | A F G E F4 |
C D E F G A G E | F D E C D4 |
G A B c d c B A | G8 :|
c B A G F E D C | D E F G A B c d |
c B A G F E D C | D4 C4 |
G A B c d c B A | G F E D E F G A |
F D E C D E F G | C8 |]
